X:16714
T:The Flower of Yarrow
M:6/4
L:1/4
S:Henry Atkinson 1694/5 transcribed John Stokoe 1883
N:1st note, bars 5, 17 missing, also 1st two notes, bars 13,21
K:G major
G2Bd2g|d2gB>AG|A2Be2g|e2de2g|G2Bd2g|!d2gB>AG|cd/2c/2B/2A/2Bc/2B/2A/2G/2|
A
2Ge2d||!g3g3|g3B>AG|A2cf/2g/2|b2ae2g|!BGBd/2B/2d/2B/2d/2B/2|d3B>AG|cd/2c
